X: 21472
M: 2/4
L: 1/8
K: C
V: 1 name="5"
g |\
c'c'/c'/ c'c' | c'2 z2 | g3 f | eeez |\
d'd'/d'/ d'd' | d'2 z2 | f3 g/f/ | [e2c2] z2 H|]
cccd | ^deee | gfed | fe^de |\
cccd | ^deee | dfed | c/G/A/B/ c/d/e/f/ |
eeef | ^fggg | bag^f | ag^fg |\
eeef | ^fggg | =fagf | "D.C."e3 |]
|:[M:6/8] g |\
gag fgf | e^de e^de | fef fef | g^fg g^fg |\
a^ga a^ga | g^fg g^fg | fef a2g | "D.C."[e2c2] :|


